Sources/FrostedUI/Resources/Icons.xcassets/youtubeSize12.imageset/youtube-size-12.svg

<svg
  width="12"
  height="12"
  viewBox="0 0 12 12"
  fill="none"
  xmlns="http://www.w3.org/2000/svg"
  data-fui-icon="true"
>
  <path
    clip-rule="evenodd"
    d="M10.1021 2.00388C10.5542 2.14382 10.9094 2.55462 11.0304 3.07737C11.2491 4.02393 11.25 6 11.25 6C11.25 6 11.25 7.9761 11.0304 8.92265C10.9094 9.4454 10.5542 9.8562 10.1021 9.9961C9.28365 10.25 6 10.25 6 10.25C6 10.25 2.71637 10.25 1.89784 9.9961C1.4458 9.8562 1.09055 9.4454 0.96954 8.92265C0.75 7.9761 0.75 6 0.75 6C0.75 6 0.75 4.02393 0.96954 3.07737C1.09055 2.55462 1.4458 2.14382 1.89784 2.00388C2.71637 1.75 6 1.75 6 1.75C6 1.75 9.28365 1.75 10.1021 2.00388Z"
    stroke="currentColor"
    stroke-width="1.5"
  />
  <path
    d="M5.41491 7.43333L7.52266 6.21652C7.68933 6.1203 7.68933 5.87973 7.52266 5.7835L5.41491 4.56668C5.24824 4.47046 5.03992 4.59074 5.03992 4.78319V7.21682C5.03992 7.40927 5.24824 7.52955 5.41491 7.43333Z"
    fill="currentColor"
  />
</svg>

<svg xmlns="http://www.w3.org/2000/svg" width="12" height="12" fill="none" data-fui-icon="true" viewBox="0 0 12 12"><path stroke="currentColor" stroke-width="1.5" d="M10.102 2.004c.452.14.807.55.928 1.073.22.947.22 2.923.22 2.923s0 1.976-.22 2.923c-.12.522-.476.933-.928 1.073C9.284 10.25 6 10.25 6 10.25s-3.284 0-4.102-.254c-.452-.14-.807-.55-.928-1.073C.75 7.976.75 6 .75 6s0-1.976.22-2.923c.12-.522.476-.933.928-1.073C2.716 1.75 6 1.75 6 1.75s3.284 0 4.102.254Z" clip-rule="evenodd"/><path fill="currentColor" d="m5.415 7.433 2.108-1.216a.25.25 0 0 0 0-.433L5.415 4.567a.25.25 0 0 0-.375.216v2.434a.25.25 0 0 0 .375.216"/></svg>
